X: 1
T: the Otter's Holt
T: the Otter's Lair
T: the Otter's Nest
T: Pol An Madra Uisce
T: the Waterdog's Hole
M: 4/4
L: 1/8
R: reel
K: Bmin
e \
|  fBBA FEFB | (3ABA FB ABde | fBBA FEFA | (3Bcd cA Bcde |
|  fBBA FEFB | (3ABA FB ABde | faaf effe |1 dBBA   ~B3  :|2 dBAF B3 ||
|: c \
|  d2fd Adfa | bfaf effe | (3ddd fd Adfa |  bfaf    egfe |
|  defd Adfa | bfaf efde |  fBBA    FEFA | (3Bcd cA B3  :|
%
"Burke's Variation B Part"
|: c \
| ~d3f  a2fa | (3baf af effe | d2fd adfa |  bfaf    effe |
|  dcdf a2fa | (3baf af effe | fBBA FEFA | (3Bcd cA B3  :|
